X: 31772
T: Patrick O'Connor's
R: polka
M: 2/4
K: Adorian
AB/A/ eA|eA e/f/g/e/|dB gB|dB gG|
A2 eA|e>f ge|dB/d/ gB|BA A:|
a2 ef/g/|ag e/f/g/e/|dB gB|dB g/e/f/g/|
aa/g/ ef/g/|a/b/a/f/ g/f/e|d/c/B gB|BA A:|
d^c/d/ gB|BA A:|
d/^c/d gB|BA A:|

